src/assets/create-load-status-4.svg

<svg width="331" height="18" viewBox="0 0 331 18" fill="none" xmlns="http://www.w3.org/2000/svg">
<path d="M4.476 11.236H0.54V10.468L4.38 4.792H5.484V10.276H6.54V11.236H5.484V13H4.476V11.236ZM4.476 10.276V6.28H4.428L1.704 10.276H4.476ZM11.0376 4.408H11.9856L8.42156 13H7.47356L11.0376 4.408ZM16.1244 11.236H12.1884V10.468L16.0284 4.792H17.1324V10.276H18.1884V11.236H17.1324V13H16.1244V11.236ZM16.1244 10.276V6.28H16.0764L13.3524 10.276H16.1244Z" fill="#9390A0"/>
<rect x="23" y="7" width="65" height="4" rx="2" fill="#07AFF0"/>
<rect x="104" y="7" width="65" height="4" rx="2" fill="#07AFF0"/>
<rect x="185" y="7" width="65" height="4" rx="2" fill="#07AFF0"/>
<rect x="266" y="7" width="65" height="4" rx="2" fill="#07AFF0"/>
</svg>

<svg width="331" height="18" fill="none" xmlns="http://www.w3.org/2000/svg"><path d="M4.476 11.236H.54v-.768l3.84-5.676h1.104v5.484H6.54v.96H5.484V13H4.476v-1.764zm0-.96V6.28h-.048l-2.724 3.996h2.772zm6.562-5.868h.948L8.422 13h-.948l3.564-8.592zm5.086 6.828h-3.936v-.768l3.84-5.676h1.104v5.484h1.056v.96h-1.056V13h-1.008v-1.764zm0-.96V6.28h-.048l-2.724 3.996h2.772z" fill="#9390A0"/><rect x="23" y="7" width="65" height="4" rx="2" fill="#07AFF0"/><rect x="104" y="7" width="65" height="4" rx="2" fill="#07AFF0"/><rect x="185" y="7" width="65" height="4" rx="2" fill="#07AFF0"/><rect x="266" y="7" width="65" height="4" rx="2" fill="#07AFF0"/></svg>
